packages/foundations/assets/icons/functional/images/accessibility/person_with_blind_cane.svg

<svg xmlns="http://www.w3.org/2000/svg" width="32" height="32" fill="none"><path fill="#1A1C1F" fill-rule="evenodd" d="M10 2.029c-.634.082-1.433.488-1.846.939C7.412 3.776 7.149 4.97 7.485 6a3.09 3.09 0 0 0 2.302 2.08 2.55 2.55 0 0 0 1.225-.001 3.1 3.1 0 0 0 2.159-1.688c.444-.949.42-1.832-.078-2.819-.19-.378-.812-.989-1.232-1.211A3.25 3.25 0 0 0 10 2.029m.814 2.054c.773.322.886 1.312.213 1.854-.509.411-1.377.157-1.617-.472-.335-.876.545-1.741 1.404-1.382M9.28 9.759c-.294.16-3.369 2.702-3.481 2.878-.055.087-.388 1.101-.741 2.254-.535 1.748-.637 2.137-.618 2.348.064.679.774 1.079 1.406.792.381-.173.445-.314 1.071-2.367l.583-1.909.49-.401c.269-.221.49-.371.49-.335 0 .037-.122 1.272-.27 2.745-.217 2.149-.259 2.719-.214 2.884.036.129.589.93 1.486 2.152l1.43 1.947 1.032 3.306c.568 1.819 1.078 3.385 1.134 3.479.217.365.693.556 1.107.443.456-.125.811-.659.725-1.091-.068-.344-2.174-6.997-2.255-7.124-.047-.073-.665-.925-1.374-1.893l-1.289-1.76.373-3.734c.226-2.27.358-3.809.336-3.927-.119-.629-.864-.989-1.421-.687m2.622 2.195a1.1 1.1 0 0 0-.366.319c-.234.353-.221.546.116 1.783.167.612.338 1.179.379 1.259.134.26 1.899 2.027 2.129 2.132a.993.993 0 0 0 1.353-.588c.168-.504.059-.708-.912-1.704l-.814-.835-.255-.957c-.282-1.058-.386-1.255-.752-1.421a1 1 0 0 0-.878.012m4.231 5.957c-.295.141-.456.333-.536.641a1 1 0 0 0 .076.741c.091.17 8.563 8.422 8.739 8.512a.95.95 0 0 0 1.117-.14.95.95 0 0 0 .218-1.196c-.118-.21-8.298-8.229-8.663-8.491-.243-.175-.661-.205-.951-.067M7.44 20.846c-.088.055-.215.16-.282.233-.071.076-.766 1.741-1.646 3.94-1.398 3.495-1.521 3.828-1.499 4.06.081.841 1.132 1.204 1.709.589.106-.113.582-1.241 1.672-3.966 1.444-3.611 1.522-3.823 1.5-4.089a.97.97 0 0 0-.524-.773c-.249-.126-.721-.123-.93.006m19.115 7.278c-.406.214-.631.678-.522 1.078.202.743 1.072 1.021 1.614.515.183-.171.35-.513.352-.719a1.1 1.1 0 0 0-.082-.346c-.237-.569-.841-.803-1.362-.528"/></svg>

<svg width="32" height="32" viewBox="0 0 32 32" fill="none" xmlns="http://www.w3.org/2000/svg"><path d="M10.000 2.029 C 9.366 2.111,8.567 2.517,8.154 2.968 C 7.412 3.776,7.149 4.970,7.485 6.000 C 7.832 7.063,8.706 7.853,9.787 8.080 C 10.258 8.179,10.543 8.179,11.012 8.079 C 11.961 7.878,12.771 7.245,13.171 6.391 C 13.615 5.442,13.591 4.559,13.093 3.572 C 12.903 3.194,12.281 2.583,11.861 2.361 C 11.318 2.074,10.620 1.949,10.000 2.029 M10.814 4.083 C 11.587 4.405,11.700 5.395,11.027 5.937 C 10.518 6.348,9.650 6.094,9.410 5.465 C 9.075 4.589,9.955 3.724,10.814 4.083 M9.280 9.759 C 8.986 9.919,5.911 12.461,5.799 12.637 C 5.744 12.724,5.411 13.738,5.058 14.891 C 4.523 16.639,4.421 17.028,4.440 17.239 C 4.504 17.918,5.214 18.318,5.846 18.031 C 6.227 17.858,6.291 17.717,6.917 15.664 L 7.500 13.755 7.990 13.354 C 8.259 13.133,8.480 12.983,8.480 13.019 C 8.480 13.056,8.358 14.291,8.210 15.764 C 7.993 17.913,7.951 18.483,7.996 18.648 C 8.032 18.777,8.585 19.578,9.482 20.800 L 10.912 22.747 11.944 26.053 C 12.512 27.872,13.022 29.438,13.078 29.532 C 13.295 29.897,13.771 30.088,14.185 29.975 C 14.641 29.850,14.996 29.316,14.910 28.884 C 14.842 28.540,12.736 21.887,12.655 21.760 C 12.608 21.687,11.990 20.835,11.281 19.867 L 9.992 18.107 10.365 14.373 C 10.591 12.103,10.723 10.564,10.701 10.446 C 10.582 9.817,9.837 9.457,9.280 9.759 M11.902 11.954 C 11.771 12.019,11.613 12.157,11.536 12.273 C 11.302 12.626,11.315 12.819,11.652 14.056 C 11.819 14.668,11.990 15.235,12.031 15.315 C 12.165 15.575,13.930 17.342,14.160 17.447 C 14.696 17.691,15.327 17.417,15.513 16.859 C 15.681 16.355,15.572 16.151,14.601 15.155 L 13.787 14.320 13.532 13.363 C 13.250 12.305,13.146 12.108,12.780 11.942 C 12.489 11.810,12.185 11.814,11.902 11.954 M16.133 17.911 C 15.838 18.052,15.677 18.244,15.597 18.552 C 15.527 18.821,15.553 19.069,15.673 19.293 C 15.764 19.463,24.236 27.715,24.412 27.805 C 24.800 28.003,25.201 27.953,25.529 27.665 C 25.883 27.354,25.971 26.870,25.747 26.469 C 25.629 26.259,17.449 18.240,17.084 17.978 C 16.841 17.803,16.423 17.773,16.133 17.911 M7.440 20.846 C 7.352 20.901,7.225 21.006,7.158 21.079 C 7.087 21.155,6.392 22.820,5.512 25.019 C 4.114 28.514,3.991 28.847,4.013 29.079 C 4.094 29.920,5.145 30.283,5.722 29.668 C 5.828 29.555,6.304 28.427,7.394 25.702 C 8.838 22.091,8.916 21.879,8.894 21.613 C 8.867 21.287,8.667 20.992,8.370 20.840 C 8.121 20.714,7.649 20.717,7.440 20.846 M26.555 28.124 C 26.149 28.338,25.924 28.802,26.033 29.202 C 26.235 29.945,27.105 30.223,27.647 29.717 C 27.830 29.546,27.997 29.204,27.999 28.998 C 27.999 28.917,27.963 28.761,27.917 28.652 C 27.680 28.083,27.076 27.849,26.555 28.124 " fill="#1A1C1F" stroke="none" fill-rule="evenodd"></path></svg>
